app/dist/common/images/battalion-oil.svg

<svg height="18" viewBox="0 0 18 18" width="18" xmlns="http://www.w3.org/2000/svg"><path d="m0 0h18v18h-18z" fill="#f0f3fa"/><g fill="#003c5b"><path d="m9 8.4 4-2.75v-1.65l-4 2.65-4-2.65v1.65z"/><path d="m9 11.75 4-2.75v-1.65l-4 2.65-4-2.65v1.65z"/><path d="m9 15 4-2.75v-1.65l-4 2.65-4-2.65v1.65z"/></g><path d="m11.5 4-2.5 1.73-2.5-1.73z"/></svg>

<!-- by TradingView --><svg width="18" height="18" viewBox="0 0 18 18" xmlns="http://www.w3.org/2000/svg"><path fill="#F0F3FA" d="M0 0h18v18H0z"/><path d="m9 8.4 4-2.75V4L9 6.65 5 4v1.65L9 8.4Z" fill="#003C5B"/><path d="M9 11.75 13 9V7.35L9 10 5 7.35V9l4 2.75Z" fill="#003C5B"/><path d="m9 15 4-2.75V10.6l-4 2.65-4-2.65v1.65L9 15Z" fill="#003C5B"/><path d="M11.5 4 9 5.73 6.5 4h5Z"/></svg>
